X: 13262
T: Five Gold Coins
R: polka
M: 2/4
K: Amixolydian
|:E>A cA|BA FA|EA BA|GA FD|
E>A cA|BA FA|dz cA|Bc AF:|
|:B>c dB|cd ez|fd ec|dc BA|
B>c dB|cA Ae|dz cA|1 AB AF:|2 Bc AF||

